X: 32415
T: Piper's Inn, The
R: jig
M: 6/8
K: Gmajor
~G3 AGE|DGB dba|ged edB|dBG AGE|
~G3 AGE|DGB dba|ged edB|AGE ~G3:|
gag fed|efg dBG|DGB DGB|dBG ABd|
gag fed|efg dBG|DBG dBG|AGE ~G3|
gag fed|efg dBG|DBG DBG|dBG ~A3|
~g3 aga|bge dBA|BGE DGB|AGE ~G3||

